X:182
T:Druim_Uachdair
R:Reel
B:The Athole Collection
M:C|
L:1/8
K:G
g|dGBG dG B2|dGBG Bddg|dGBG dG B2|cABG Bee:|
g|efge dG B2|efgd Bddg|efge dG B2|cABG Beeg|efge dG B2|
efge fgaf|bfge dg B2|cABG Bee||

